X: 1
T: Custy's
R: jig
M: 6/8
L: 1/8
K: Bmin
|:c|def BAF|ABc ~B3|fba fed|ef{g}f BAF|
def edB|~A3 Ade|fba fed|1ecA B2:|2ecA Bfa||
|:b3 afe|fea fed|~B3 ABd|efd e2a|
bfa efd|~B3 AFA|def afe|1dBA Bfa:|2dBA B2||


Tune 1204	Setting 14495

